X: 10521
T: The GLASGOW QUADRILLES No.1.--la Pantalon.
C: Thos. Henderson.
P: Copyright.
%R: jig
N: This is version 2, for ABC software that understands diminuendo symbols.
U: Q=!diminuendo(!
U: q=!diminuendo)!
B: W. Hamilton "Universal Tune-Book" Vol. 1 Glasgow 1844 p.52 #1
S: http://imslp.org/wiki/Hamilton's_Universal_Tune-Book_(Various)
Z: 2016 John Chambers <jc:trillian.mit.edu>
M: 6/8
L: 1/8
K: D
% - - - - - - - - - - - - - - - - - - - - - - - - -
A |\
(de)f (ed)c | d2B A2F | dcd fed | (Q^d3 qe2)A |\
(de)f (ed)c | d2B A2F | (GA)B (Ad)c | (e3 d2) H|]\
[K:G] =c |\
(Bd)g (gf)e | (e2d) (B2d) | (e2d) (gab) | (Qb3 qa2) (d/c/) |
(Bd)g (gf)e | (e2d) (QB2qd) | (efg) (fga) | (Qa3 "^D.C."qg2) |]\
[K:Edor] !ff!F |\
"_>"B2z "_>"^d2z | "_>"f2z "_>"b2z | (ba)g (gf)e | ^d2f B2B |\
"_>"B2z "_>"^d2z | "_>"f2z "_>"b2z | (ag)f (gf)e | B3- "^D.C"B2 |]
% - - - - - - - - - - - - - - - - - - - - - - - - -

%%sep 1 1 500
%%sep 1 1 500

